public/img/pigeon.svg

<svg width="82" height="89" viewBox="0 0 82 89" fill="none" xmlns="http://www.w3.org/2000/svg">
<g clip-path="url(#clip0_154_4366)">
<path d="M50.8024 49.9191C50.1625 44.8334 53.1891 40.6835 56.5322 37.6331C59.875 34.5827 63.7935 31.9589 66.0063 28.0114C68.2188 24.0639 67.8733 18.1411 63.8673 16.0363C60.4935 14.2637 56.8804 12.8449 53.1532 11.8379C54.1042 12.9566 54.8159 14.2735 55.1776 15.7001C56.1842 19.6675 54.4229 24.1819 50.9955 26.4193C43.2986 31.4435 38.9296 42.13 42.5478 51.0407C46.6365 50.8472 50.8024 49.9191 50.8024 49.9191Z" fill="#356BA5"/>
<path d="M50.8024 49.9191C50.1625 44.8334 53.1891 40.6835 56.5322 37.6331C59.875 34.5827 63.7935 31.9589 66.0063 28.0114C68.2188 24.0639 67.8733 18.1411 63.8673 16.0363C60.4935 14.2637 56.8804 12.8449 53.1532 11.8379C54.1042 12.9566 54.8159 14.2735 55.1776 15.7001C56.1842 19.6675 54.4229 24.1819 50.9955 26.4193C43.2986 31.4435 38.9296 42.13 42.5478 51.0407C46.6365 50.8472 50.8024 49.9191 50.8024 49.9191Z" fill="#356BA5"/>
<path d="M76.154 24.7696C77.7638 23.0609 78.728 20.7579 78.8156 18.4118C78.8348 17.8934 78.471 17.3848 77.974 17.2355C77.4773 17.0863 76.8932 17.3103 76.6239 17.7534C75.4133 19.7444 75.1895 22.3045 76.154 24.7696Z" fill="#356BA5"/>
<path d="M75.6343 27.1574C75.5942 24.9134 74.9374 22.6836 73.7542 20.7762C73.2307 19.9317 71.8589 19.9357 71.1735 20.6555C70.4884 21.375 70.4476 22.5422 70.8619 23.4455C71.2763 24.3487 72.063 25.027 72.892 25.5751C73.7208 26.1233 74.6162 26.5728 75.6343 27.1574Z" fill="#356BA5"/>
<path d="M76.1958 31.7773C75.9988 29.371 76.7442 26.9002 78.2386 25.0044C78.6304 24.5077 79.3573 24.3077 79.948 24.5342C80.5385 24.761 80.9453 25.3959 80.9039 26.0272C80.7355 28.6072 78.7979 30.9764 76.1958 31.7773Z" fill="#356BA5"/>
<path d="M76.3603 33.2052C75.5311 31.3706 74.2457 29.7444 72.6518 28.5143C71.8939 27.929 70.6589 28.3584 70.2494 29.224C69.84 30.0896 70.1506 31.1734 70.8106 31.8672C71.4707 32.5609 72.4133 32.9192 73.3532 33.1017C74.2931 33.2844 75.2566 33.3124 76.3603 33.2052Z" fill="#356BA5"/>
<path d="M81.1093 42.4492C81.0646 42.49 80.8081 42.2739 80.3784 41.843C80.2715 41.7333 80.1534 41.6123 80.0243 41.48C79.9006 41.3426 79.7782 41.1837 79.6412 41.0165C79.3746 40.6771 79.0497 40.3026 78.7603 39.8405C78.6095 39.6127 78.4516 39.3744 78.2874 39.1263C78.1256 38.876 77.9859 38.5991 77.8265 38.3202C77.7486 38.1795 77.6696 38.0364 77.5892 37.8913C77.5499 37.818 77.5068 37.746 77.4699 37.6702C77.4345 37.5937 77.3989 37.5168 77.3627 37.439C77.2198 37.128 77.0725 36.8075 76.9215 36.4792C76.3675 35.1444 75.8803 33.6219 75.5702 31.9789C75.28 30.3322 75.1984 28.7356 75.2453 27.2911C75.2707 26.9306 75.2953 26.5789 75.3191 26.2371C75.3255 26.152 75.3316 26.0671 75.3378 25.983C75.3457 25.8992 75.3604 25.8165 75.3715 25.7344C75.3953 25.5699 75.4187 25.4083 75.4418 25.2492C75.4925 24.932 75.5254 24.6236 75.5884 24.3324C75.6545 24.042 75.7182 23.7634 75.7787 23.497C75.8864 22.9626 76.0579 22.4973 76.1877 22.0857C76.2568 21.8811 76.3153 21.689 76.3825 21.5166C76.4565 21.3477 76.5241 21.1925 76.5854 21.0523C76.8352 20.4973 76.999 20.2046 77.0553 20.2268C77.1116 20.2491 77.0561 20.5833 76.9092 21.162C76.8706 21.3068 76.8283 21.4667 76.7821 21.6413C76.7396 21.8171 76.7056 22.0119 76.6604 22.218C76.5785 22.6324 76.4526 23.0949 76.3869 23.6219C76.3456 23.8834 76.3023 24.1568 76.2571 24.4416C76.2133 24.7266 76.1985 25.0276 76.1648 25.336C76.1498 25.4902 76.1343 25.6474 76.1188 25.807C76.112 25.8866 76.1009 25.9668 76.0967 26.048C76.0942 26.1294 76.0918 26.2115 76.0891 26.2941C76.0778 26.6242 76.066 26.964 76.0542 27.3122C76.0529 28.7061 76.1552 30.2372 76.4341 31.8212C76.7327 33.4015 77.1775 34.8702 77.6706 36.1738C77.8049 36.4954 77.9357 36.8092 78.0631 37.1139C78.0946 37.1904 78.126 37.2662 78.157 37.3417C78.1895 37.4162 78.2281 37.4872 78.2628 37.5593C78.3339 37.7032 78.4035 37.8446 78.4721 37.9838C78.6125 38.2604 78.7327 38.5368 78.8741 38.7877C79.017 39.0383 79.1543 39.279 79.2853 39.509C79.5325 39.9789 79.8138 40.367 80.0369 40.7258C80.152 40.9026 80.2525 41.0728 80.3544 41.2225C80.4591 41.3694 80.5553 41.5041 80.6423 41.6259C80.9842 42.1155 81.1543 42.4086 81.1093 42.4492Z" fill="#356BA5"/>
<path d="M78.9548 32.8418C76.3886 34.4541 73.8224 36.0663 71.2562 37.6783C72.5552 38.6952 73.8541 39.7121 75.1529 40.7292C76.5949 38.1345 78.037 35.54 78.9548 32.8418Z" fill="#2C5172"/>
<path d="M40.6463 56.1912C40.0758 51.7019 43.1023 47.5518 46.4454 44.5014C49.7884 41.451 53.7067 38.8272 55.9195 34.8797C58.1323 30.9322 57.7868 25.0096 53.7805 22.9045C41.3327 16.3643 25.6276 14.6273 12.9418 20.6932C10.3633 21.926 9.30164 24.5623 11.1296 25.5199C12.958 26.4775 19.923 26.1308 19.923 26.1308C19.923 26.1308 12.0424 26.6654 10.394 29.4623C9.53059 30.9272 10.0005 32.9126 12.0181 33.3665C14.9583 34.0283 19.4602 33.5591 23.618 33.5143C22.0128 33.6771 16.605 34.3785 14.8332 35.0954C13.5162 35.6285 12.2601 36.6516 12.0392 38.055C11.8186 39.4583 13.3657 40.5767 14.7636 40.8305C18.0813 41.4328 22.3537 41.3863 26.2048 40.9975C23.7117 43.0039 22.2015 46.1786 22.2179 49.3787C22.2347 52.5789 23.7778 55.738 26.2916 57.7182L40.6463 56.1912Z" fill="#356BA5"/>
<path d="M36.3784 50.8499C33.8643 48.8695 32.3211 45.7106 32.3047 42.5105C32.2879 39.3103 33.7981 36.1354 36.2913 34.1292C32.4402 34.5178 28.168 34.5645 24.8503 33.9622C23.4525 33.7084 21.9051 32.59 22.126 31.1865C22.3466 29.7833 23.603 28.7603 24.9199 28.2271C26.6915 27.5102 32.0993 26.8089 33.7047 26.6461C29.5467 26.6908 25.0448 27.16 22.1046 26.4983C20.0873 26.0443 19.6171 24.059 20.4808 22.5938C22.1289 19.7972 30.0095 19.2625 30.0095 19.2625C30.0095 19.2625 23.0445 19.6093 21.2163 18.6516C19.3881 17.694 20.45 15.0578 23.0283 13.8249C35.7144 7.7593 51.4192 9.49599 63.8672 16.0363C67.8733 18.1411 68.2188 24.0639 66.0062 28.0114C63.7934 31.959 59.8749 34.5827 56.5321 37.6331C53.1891 40.6835 50.1625 44.8334 50.8024 49.9191C57.2726 51.1561 60.8161 46.2839 62.6484 41.4737C63.8421 38.3396 67.7653 35.606 71.2751 36.887C75.3727 38.3827 80.7382 44.693 75.2391 56.3544C71.3125 64.6815 64.3084 71.5142 55.8868 75.2333C47.4652 78.9523 37.6972 79.5263 28.8979 76.8192C22.408 74.8223 18.0378 67.533 19.335 60.868C20.6322 54.2028 27.4172 49.0844 36.3784 50.8499Z" fill="#F3C227"/>
<path d="M69.3117 40.9649C69.3681 40.9427 69.4711 41.0455 69.6098 41.2526C69.7475 41.4602 69.9238 41.7712 70.1016 42.1837C70.1902 42.3902 70.2785 42.6226 70.3535 42.8845C70.4275 43.1467 70.4927 43.4379 70.505 43.7696C70.518 44.0959 70.4786 44.4835 70.2728 44.8544C70.17 45.0371 70.0261 45.2053 69.8587 45.3391C69.6914 45.4761 69.5023 45.567 69.3135 45.6406C69.2188 45.6748 69.1241 45.706 69.0312 45.7264C68.9419 45.7515 68.8359 45.768 68.7333 45.7817C68.525 45.8031 68.3116 45.7871 68.1134 45.7372C67.7115 45.6381 67.3977 45.4106 67.1614 45.1792C66.9246 44.9434 66.7515 44.6945 66.613 44.456C66.4741 44.2174 66.3705 43.988 66.2877 43.776C66.1234 43.3515 66.0415 42.9974 66.0075 42.7478C65.9741 42.4977 65.9901 42.3514 66.0471 42.3329C66.1054 42.3142 66.1994 42.4252 66.3295 42.6327C66.4595 42.8398 66.6253 43.1455 66.8442 43.5008C66.9541 43.6779 67.0773 43.8675 67.2207 44.0549C67.3628 44.2428 67.5256 44.4287 67.7098 44.5846C67.8945 44.7385 68.0991 44.859 68.3104 44.8999C68.4161 44.9215 68.5241 44.9269 68.6369 44.9136C68.7419 44.8976 68.89 44.8625 69.007 44.818C69.252 44.7277 69.4209 44.5961 69.5284 44.423C69.6366 44.2494 69.688 44.0168 69.6959 43.773C69.7128 43.2817 69.6009 42.7862 69.5117 42.377C69.4175 41.9645 69.3314 41.6227 69.2918 41.3783C69.2515 41.1336 69.2552 40.987 69.3117 40.9649Z" fill="#2C5172"/>
<path d="M36.6248 51.1118C15.1701 46.8409 0.883545 57.9976 0.883545 57.9976C0.883545 57.9976 4.18922 71.2665 13.8495 76.5563C15.1701 66.5621 21.6683 56.2727 33.8685 57.8901" fill="#F3C227"/>
</g>
<defs>
<clipPath id="clip0_154_4366">
<rect width="80.2328" height="88.4152" fill="white" transform="translate(0.883545 0.0888672)"/>
</clipPath>
</defs>
</svg>

<svg xmlns="http://www.w3.org/2000/svg" width="82" height="89" fill="none"><g clip-path="url(#a)"><path fill="#356BA5" d="M50.802 49.92c-.64-5.087 2.387-9.236 5.73-12.287 3.343-3.05 7.262-5.674 9.474-9.622 2.213-3.947 1.867-9.87-2.139-11.975a52.594 52.594 0 0 0-10.714-4.198c.951 1.119 1.663 2.436 2.025 3.862 1.006 3.968-.755 8.482-4.182 10.72-7.697 5.023-12.066 15.71-8.448 24.62 4.088-.193 8.254-1.12 8.254-1.12Z"/><path fill="#356BA5" d="M50.802 49.92c-.64-5.087 2.387-9.236 5.73-12.287 3.343-3.05 7.262-5.674 9.474-9.622 2.213-3.947 1.867-9.87-2.139-11.975a52.594 52.594 0 0 0-10.714-4.198c.951 1.119 1.663 2.436 2.025 3.862 1.006 3.968-.755 8.482-4.182 10.72-7.697 5.023-12.066 15.71-8.448 24.62 4.088-.193 8.254-1.12 8.254-1.12ZM76.154 24.77a9.905 9.905 0 0 0 2.662-6.358 1.218 1.218 0 0 0-.842-1.177 1.218 1.218 0 0 0-1.35.518c-1.21 1.991-1.434 4.552-.47 7.017ZM75.634 27.157a12.603 12.603 0 0 0-1.88-6.38c-.523-.845-1.895-.841-2.58-.122-.686.72-.726 1.887-.312 2.79.414.904 1.201 1.582 2.03 2.13.829.548 1.724.998 2.742 1.582ZM76.196 31.777a9.773 9.773 0 0 1 2.043-6.773 1.537 1.537 0 0 1 1.709-.47c.59.227.997.862.956 1.493-.168 2.58-2.106 4.95-4.708 5.75ZM76.36 33.205a12.41 12.41 0 0 0-3.708-4.69c-.758-.586-1.993-.157-2.403.709-.409.866-.098 1.95.562 2.643.66.694 1.602 1.052 2.542 1.235.94.182 1.904.21 3.007.103Z"/><path fill="#356BA5" d="M81.11 42.45c-.045.04-.302-.176-.732-.607l-.354-.363c-.123-.137-.246-.296-.383-.463-.266-.34-.591-.714-.88-1.177l-.474-.714c-.161-.25-.301-.527-.46-.806l-.238-.429c-.04-.073-.082-.145-.12-.22-.034-.077-.07-.154-.106-.232l-.442-.96a22.87 22.87 0 0 1-1.35-4.5 22.867 22.867 0 0 1-.326-4.688l.074-1.054.019-.254c.008-.084.022-.166.034-.249l.07-.485c.05-.317.083-.625.146-.917l.19-.835c.108-.534.28-1 .41-1.411.069-.205.127-.397.194-.57.075-.168.142-.323.203-.464.25-.555.414-.847.47-.825.057.022.001.356-.146.935l-.127.48c-.042.175-.076.37-.122.576-.081.414-.207.877-.273 1.404l-.13.82c-.044.285-.059.586-.092.894l-.046.471c-.007.08-.018.16-.022.241l-.008.246-.035 1.018a25.944 25.944 0 0 0 .38 4.51c.299 1.58.743 3.048 1.237 4.352l.392.94.094.228c.032.074.071.145.106.217.07.144.14.286.21.425.14.276.26.553.401.804l.411.721c.248.47.529.858.752 1.217.115.177.215.347.317.496l.288.404c.342.49.512.783.467.823Z"/><path fill="#2C5172" d="m78.955 32.842-7.699 4.836 3.897 3.051c1.442-2.594 2.884-5.189 3.802-7.887Z"/><path fill="#356BA5" d="M40.646 56.191c-.57-4.49 2.456-8.64 5.8-11.69 3.342-3.05 7.26-5.674 9.474-9.621 2.212-3.948 1.867-9.87-2.14-11.976-12.447-6.54-28.152-8.277-40.838-2.21-2.579 1.232-3.64 3.868-1.812 4.826 1.828.957 8.793.61 8.793.61s-7.88.535-9.529 3.332c-.863 1.465-.393 3.45 1.624 3.905 2.94.661 7.442.192 11.6.147-1.605.163-7.013.864-8.785 1.581-1.317.534-2.573 1.557-2.794 2.96-.22 1.403 1.327 2.522 2.725 2.776 3.317.602 7.59.555 11.44.166-2.492 2.007-4.003 5.182-3.986 8.382.017 3.2 1.56 6.359 4.074 8.34l14.354-1.528Z"/><path fill="#F3C227" d="M36.378 50.85c-2.514-1.98-4.057-5.14-4.073-8.34-.017-3.2 1.493-6.375 3.986-8.38-3.85.388-8.123.434-11.44-.168-1.398-.254-2.946-1.372-2.725-2.776.22-1.403 1.477-2.426 2.794-2.959 1.771-.717 7.18-1.418 8.785-1.58-4.158.044-8.66.513-11.6-.149-2.018-.454-2.488-2.439-1.624-3.904 1.648-2.797 9.528-3.332 9.528-3.332s-6.965.347-8.793-.61c-1.828-.958-.766-3.594 1.812-4.827 12.686-6.066 28.391-4.329 40.84 2.211 4.005 2.105 4.35 8.028 2.138 11.975-2.213 3.948-6.131 6.572-9.474 9.622s-6.37 7.2-5.73 12.286c6.47 1.237 10.014-3.635 11.846-8.445 1.194-3.134 5.117-5.868 8.627-4.587 4.098 1.496 9.463 7.806 3.964 19.467-3.927 8.328-10.93 15.16-19.352 18.88-8.422 3.718-18.19 4.292-26.99 1.585-6.489-1.997-10.86-9.286-9.562-15.951 1.297-6.665 8.082-11.784 17.043-10.018Z"/><path fill="#2C5172" d="M69.312 40.965c.056-.022.16.08.298.288.138.207.314.518.492.93.088.207.176.44.251.702.075.262.14.553.152.885.013.326-.026.713-.232 1.084a1.69 1.69 0 0 1-.414.485 1.976 1.976 0 0 1-.545.302 2.29 2.29 0 0 1-.283.085 1.806 1.806 0 0 1-.918.01 2.083 2.083 0 0 1-.952-.557 3.441 3.441 0 0 1-.548-.723 4.837 4.837 0 0 1-.325-.68 4.667 4.667 0 0 1-.28-1.028c-.034-.25-.018-.397.04-.415.057-.019.151.092.281.3.13.207.296.512.515.868.11.177.233.367.377.554.142.188.305.374.489.53.184.154.39.274.6.315.106.022.214.027.327.014.105-.016.253-.052.37-.096.245-.09.414-.222.521-.395.109-.174.16-.406.168-.65.017-.491-.095-.987-.184-1.396-.094-.413-.18-.754-.22-.999-.04-.244-.037-.391.02-.413Z"/><path fill="#F3C227" d="M36.625 51.112C15.17 46.84.884 57.998.884 57.998S4.189 71.266 13.85 76.556c1.32-9.994 7.818-20.283 20.018-18.666"/></g><defs><clipPath id="a"><path fill="#fff" d="M.884.089h80.233v88.415H.884z"/></clipPath></defs></svg>
